X: 16374
T: Gus's
R: jig
M: 6/8
K: Gmajor
B,G,G, B,B,D|G2G F2=F|E2C E2G|D3 D2C|
B,B,D G2A|Bdd c2B|AEE FFG|A3 D2C|
B,G,G, B,B,D|G2G F2=F|E2C E2G|D3 D2C|
B,B,D G2A|Bdd c2B|AEE FED|1 G3 D2C:|2 G3B2c||
dgd ccA|BdB ABA|G2G F2E|D3 D2C|
B,2D G2A|B2d c2B|AEE FFG|A3 B2c|
dgd c2A|BdB ABA|G2G F2E|D3 D2C|
B,B,D G2A|Bdd c2B|AEE FED|G3 D2C||

